forest-outline.svg

<svg fill="currentColor" viewBox="0 0 24 24"><path d="M19.19 18H24l-3.86-6H22L15 2l-2.39 3.41L17.92 13h-1.95zM16 12 9 2 2 12h1.86L0 18h7v4h4v-4h7l-3.86-6zm-3.84-2H10.5l3.84 6H3.67l3.86-6H5.84L9 5.5zm.84 9v3h4v-3z"/></svg>

<svg  viewBox="0 0 24 24" fill="currentColor"><path  d="M19.19 18H24L20.14 12H22L15 2L12.61 5.41L17.92 13H15.97L19.19 18M16 12L9 2L2 12H3.86L0 18H7V22H11V18H18L14.14 12H16M12.16 10H10.5L14.34 16H3.67L7.53 10H5.84L9 5.5L12.16 10M13 19V22H17V19H13Z"/></svg>
